X:60
T: De klenge Mennchen, S. 28f
N: L0021
O: Luxemburg
S: Die Luxemburger Volkslieder lterer Zeit, Luxemburg 1904 posth.]
N: 2. unbekanntere? Weise
R: ??, Liebeslied]
M: 3/4
L: 1/8
K: D
D2 | A2zAAA | F4D2 | A4B2 | A2z2
D2 | A3AAA | F4D2 | A4B2 | A2z2
A2 | d2d2d2 | B2G2G2 | B2BcdB | A2F2F2 | G2E2A2 | D2z2

@@@ Tune index: 8114
